sharp/svg/select_all.svg

<svg xmlns="http://www.w3.org/2000/svg" width="24" height="24"><path fill="none" d="M0 0h24v24H0V0z"/><path d="M3 13h2v-2H3v2zm4 8h2v-2H7v2zM3 9h2V7H3v2zm10-6h-2v2h2V3zM3 17h2v-2H3v2zM9 3H7v2h2V3zM5 3H3v2h2V3zm6 18h2v-2h-2v2zm8-8h2v-2h-2v2zm0-4h2V7h-2v2zm0 8h2v-2h-2v2zm-4 4h2v-2h-2v2zm0-16h2V3h-2v2zm4 0h2V3h-2v2zm0 16h2v-2h-2v2zM3 21h2v-2H3v2zm4-4h10V7H7v10zm2-8h6v6H9V9z" fill="currentColor"/></svg>

<?xml version="1.0" encoding="utf-8"?>
<!-- Generator: Adobe Illustrator 19.1.0, SVG Export Plug-In . SVG Version: 6.00 Build 0)  -->
<svg version="1.1" xmlns="http://www.w3.org/2000/svg" xmlns:xlink="http://www.w3.org/1999/xlink" x="0px" y="0px" width="24px"
	 height="24px" viewBox="0 0 24 24" enable-background="new 0 0 24 24" xml:space="preserve">
<g id="Bounding_Boxes">
	<g id="ui_x5F_spec_x5F_header_copy_3" display="none">
	</g>
	<path fill="none" d="M0,0h24v24H0V0z"/>
</g>
<g id="Sharp" fill="currentColor">
	<g id="ui_x5F_spec_x5F_header_copy_4" display="none">
	</g>
	<path d="M3,13h2v-2H3V13z M7,21h2v-2H7V21z M3,9h2V7H3V9z M13,3h-2v2h2V3z M3,17h2v-2H3V17z M9,3H7v2h2V3z M5,3H3v2h2V3z M11,21h2
		v-2h-2V21z M19,13h2v-2h-2V13z M19,9h2V7h-2V9z M19,17h2v-2h-2V17z M15,21h2v-2h-2V21z M15,5h2V3h-2V5z M19,5h2V3h-2V5z M19,21h2
		v-2h-2V21z M3,21h2v-2H3V21z M7,17h10V7H7V17z M9,9h6v6H9V9z"/>
</g>
</svg>
